static/cards/FrenchDeck/default/card_hearts_06.svg

<svg width="219" height="304" viewBox="0 0 219 304" fill="none" xmlns="http://www.w3.org/2000/svg">
<g filter="url(#filter0_d_18_652)">
<g clip-path="url(#clip0_18_652)">
<rect x="8" y="4" width="203" height="288" rx="10" fill="white"/>
<path d="M16.0308 31.1274C16.0308 21.498 19.7344 16.1528 26.3809 16.1528C28.5229 16.1528 30.585 16.7334 32.1064 17.7744C33.4277 18.6353 34.2285 19.7363 34.2285 20.6572C34.2285 21.5181 33.6079 22.1587 32.7471 22.1587C32.1865 22.1587 31.7661 21.9385 31.0454 21.2378C29.604 19.8164 28.1025 19.1758 26.3208 19.1758C21.8564 19.1758 19.4941 23.0996 19.4341 30.5869H19.5942C20.5151 28.1445 23.3779 26.4229 26.501 26.4229C31.5859 26.4229 35.1494 30.0864 35.1494 35.3115C35.1494 40.8169 31.3857 44.5605 25.8203 44.5605C22.437 44.5605 19.7344 43.1592 18.0928 40.5767C16.7114 38.3745 16.0308 35.2715 16.0308 31.1274ZM19.9346 35.4316C19.9346 39.0151 22.417 41.5576 25.9604 41.5576C29.4038 41.5576 31.7061 39.1353 31.7061 35.4517C31.7061 31.8081 29.3838 29.4058 25.8203 29.4058C22.3569 29.4058 19.9346 31.8882 19.9346 35.4316Z" fill="#BC1E24"/>
<path d="M21.7347 53.0006C24.4518 53.042 25.5069 55.3984 25.8537 56.5094C25.8888 56.6218 26.1122 56.6217 26.1472 56.5093C26.4938 55.3983 27.5482 53.042 30.2653 53.0006C33.8229 52.9462 36.4995 56.9292 34.0587 60.9289C31.8832 64.4939 26.0821 71 26 71C25.9165 71 20.1169 64.4943 17.9413 60.9289C15.5005 56.9291 18.177 52.9462 21.7347 53.0006Z" fill="#BC1E24"/>
<path d="M202.969 264.873C202.969 274.502 199.266 279.847 192.619 279.847C190.477 279.847 188.415 279.267 186.894 278.226C185.572 277.365 184.771 276.264 184.771 275.343C184.771 274.482 185.392 273.841 186.253 273.841C186.813 273.841 187.234 274.062 187.955 274.762C189.396 276.184 190.897 276.824 192.679 276.824C197.144 276.824 199.506 272.9 199.566 265.413L199.406 265.413C198.485 267.855 195.622 269.577 192.499 269.577C187.414 269.577 183.851 265.914 183.851 260.688C183.851 255.183 187.614 251.439 193.18 251.439C196.563 251.439 199.266 252.841 200.907 255.423C202.289 257.625 202.969 260.729 202.969 264.873ZM199.065 260.568C199.065 256.985 196.583 254.442 193.04 254.442C189.596 254.442 187.294 256.865 187.294 260.548C187.294 264.192 189.616 266.594 193.18 266.594C196.643 266.594 199.065 264.112 199.065 260.568Z" fill="#BC1E24"/>
<path d="M197.265 242.999C194.548 242.958 193.493 240.602 193.146 239.491C193.111 239.378 192.888 239.378 192.853 239.491C192.506 240.602 191.452 242.958 188.735 242.999C185.177 243.054 182.501 239.071 184.941 235.071C187.117 231.506 192.918 225 193 225C193.083 225 198.883 231.506 201.059 235.071C203.499 239.071 200.823 243.054 197.265 242.999Z" fill="#BC1E24"/>
<path d="M55.2207 30.2514C61.7689 30.3516 64.3116 36.0461 65.1476 38.731C65.2321 39.0026 65.7704 39.0025 65.8549 38.7309C66.6901 36.0459 69.2313 30.3516 75.7794 30.2514C84.3533 30.1199 90.8039 39.7455 84.9216 49.4115C79.6786 58.0269 65.6979 73.75 65.5 73.75C65.2989 73.7499 51.3219 58.0278 46.0785 49.4115C40.1963 39.7454 46.6467 30.1199 55.2207 30.2514Z" fill="#BC1E24"/>
<path d="M55.2207 265.749C61.7689 265.648 64.3116 259.954 65.1476 257.269C65.2321 256.997 65.7704 256.997 65.8549 257.269C66.6901 259.954 69.2313 265.648 75.7794 265.749C84.3533 265.88 90.8039 256.255 84.9216 246.589C79.6786 237.973 65.6979 222.25 65.5 222.25C65.2989 222.25 51.3219 237.972 46.0785 246.589C40.1963 256.255 46.6467 265.88 55.2207 265.749Z" fill="#BC1E24"/>
<path d="M143.221 30.2514C149.769 30.3516 152.312 36.0461 153.148 38.731C153.232 39.0026 153.77 39.0025 153.855 38.7309C154.69 36.0459 157.231 30.3516 163.779 30.2514C172.353 30.1199 178.804 39.7455 172.922 49.4115C167.679 58.0269 153.698 73.75 153.5 73.75C153.299 73.7499 139.322 58.0278 134.079 49.4115C128.196 39.7454 134.647 30.1199 143.221 30.2514Z" fill="#BC1E24"/>
<path d="M55.2207 126.251C61.7689 126.352 64.3116 132.046 65.1476 134.731C65.2321 135.003 65.7704 135.003 65.8549 134.731C66.6901 132.046 69.2313 126.352 75.7794 126.251C84.3533 126.12 90.8039 135.745 84.9216 145.411C79.6786 154.027 65.6979 169.75 65.5 169.75C65.2989 169.75 51.3219 154.028 46.0785 145.411C40.1963 135.745 46.6467 126.12 55.2207 126.251Z" fill="#BC1E24"/>
<path d="M143.221 126.251C149.769 126.352 152.312 132.046 153.148 134.731C153.232 135.003 153.77 135.003 153.855 134.731C154.69 132.046 157.231 126.352 163.779 126.251C172.353 126.12 178.804 135.745 172.922 145.411C167.679 154.027 153.698 169.75 153.5 169.75C153.299 169.75 139.322 154.028 134.079 145.411C128.196 135.745 134.647 126.12 143.221 126.251Z" fill="#BC1E24"/>
<path d="M143.221 265.749C149.769 265.648 152.312 259.954 153.148 257.269C153.232 256.997 153.77 256.997 153.855 257.269C154.69 259.954 157.231 265.648 163.779 265.749C172.353 265.88 178.804 256.255 172.922 246.589C167.679 237.973 153.698 222.25 153.5 222.25C153.299 222.25 139.322 237.972 134.079 246.589C128.196 256.255 134.647 265.88 143.221 265.749Z" fill="#BC1E24"/>
</g>
</g>
<defs>
<filter id="filter0_d_18_652" x="0" y="0" width="219" height="304" filterUnits="userSpaceOnUse" color-interpolation-filters="sRGB">
<feFlood flood-opacity="0" result="BackgroundImageFix"/>
<feColorMatrix in="SourceAlpha" type="matrix" values="0 0 0 0 0 0 0 0 0 0 0 0 0 0 0 0 0 0 127 0" result="hardAlpha"/>
<feOffset dy="4"/>
<feGaussianBlur stdDeviation="4"/>
<feComposite in2="hardAlpha" operator="out"/>
<feColorMatrix type="matrix" values="0 0 0 0 0.614771 0 0 0 0 0.70094 0 0 0 0 0.806257 0 0 0 1 0"/>
<feBlend mode="normal" in2="BackgroundImageFix" result="effect1_dropShadow_18_652"/>
<feBlend mode="normal" in="SourceGraphic" in2="effect1_dropShadow_18_652" result="shape"/>
</filter>
<clipPath id="clip0_18_652">
<rect x="8" y="4" width="203" height="288" rx="10" fill="white"/>
</clipPath>
</defs>
</svg>

<svg xmlns="http://www.w3.org/2000/svg" width="219" height="304" fill="none" viewBox="0 0 219 304"><g filter="url(#a)"><g clip-path="url(#b)"><rect width="203" height="288" x="8" y="4" fill="#fff" rx="10"/><path fill="#bc1e24" d="M16.03 31.127c0-9.629 3.704-14.974 10.35-14.974 2.143 0 4.205.58 5.726 1.621 1.322.861 2.122 1.962 2.122 2.883 0 .861-.62 1.502-1.48 1.502-.561 0-.982-.22-1.703-.921-1.441-1.422-2.943-2.062-4.724-2.062-4.465 0-6.827 3.924-6.887 11.41h.16c.921-2.441 3.784-4.163 6.907-4.163 5.085 0 8.648 3.663 8.648 8.889 0 5.505-3.763 9.249-9.329 9.249-3.383 0-6.086-1.402-7.727-3.984-1.382-2.203-2.062-5.305-2.062-9.45m3.905 4.305c0 3.583 2.482 6.126 6.025 6.126 3.444 0 5.746-2.423 5.746-6.106 0-3.644-2.322-6.046-5.886-6.046-3.463 0-5.885 2.482-5.885 6.026M21.735 53c2.717.042 3.772 2.398 4.119 3.51.035.112.258.112.293 0 .347-1.112 1.401-3.468 4.118-3.51 3.558-.054 6.234 3.93 3.794 7.929C31.883 64.494 26.082 71 26 71c-.084 0-5.883-6.506-8.059-10.071-2.44-4 .236-7.983 3.794-7.928M202.969 264.873c0 9.629-3.703 14.974-10.35 14.974-2.142 0-4.204-.58-5.725-1.621-1.322-.861-2.123-1.962-2.123-2.883 0-.861.621-1.502 1.482-1.502.56 0 .981.221 1.702.921 1.441 1.422 2.942 2.062 4.724 2.062 4.465 0 6.827-3.924 6.887-11.411h-.16c-.921 2.442-3.784 4.164-6.907 4.164-5.085 0-8.648-3.663-8.648-8.889 0-5.505 3.763-9.249 9.329-9.249 3.383 0 6.086 1.402 7.727 3.984 1.382 2.202 2.062 5.306 2.062 9.45m-3.904-4.305c0-3.583-2.482-6.126-6.025-6.126-3.444 0-5.746 2.423-5.746 6.106 0 3.644 2.322 6.046 5.886 6.046 3.463 0 5.885-2.482 5.885-6.026M197.265 242.999c-2.717-.041-3.772-2.397-4.119-3.508-.035-.113-.258-.113-.293 0-.347 1.111-1.401 3.467-4.118 3.508-3.558.055-6.234-3.928-3.794-7.928C187.117 231.506 192.918 225 193 225c.083 0 5.883 6.506 8.059 10.071 2.44 4-.236 7.983-3.794 7.928M55.22 30.251c6.549.1 9.092 5.795 9.928 8.48.084.272.622.271.707 0 .835-2.685 3.376-8.38 9.924-8.48 8.574-.131 15.025 9.494 9.143 19.16C79.679 58.027 65.698 73.75 65.5 73.75c-.201 0-14.178-15.722-19.421-24.339-5.883-9.666.568-19.291 9.142-19.16M55.22 265.749c6.549-.101 9.092-5.795 9.928-8.48.084-.272.622-.272.707 0 .835 2.685 3.376 8.379 9.924 8.48 8.574.131 15.025-9.494 9.143-19.16-5.243-8.616-19.224-24.339-19.422-24.339-.201 0-14.178 15.722-19.421 24.339-5.883 9.666.568 19.291 9.142 19.16M143.221 30.251c6.548.1 9.091 5.795 9.927 8.48.084.272.622.271.707 0 .835-2.685 3.376-8.38 9.924-8.48 8.574-.131 15.025 9.494 9.143 19.16-5.243 8.616-19.224 24.339-19.422 24.339-.201 0-14.178-15.722-19.421-24.339-5.883-9.666.568-19.291 9.142-19.16M55.22 126.251c6.549.101 9.092 5.795 9.928 8.48.084.272.622.272.707 0 .835-2.685 3.376-8.379 9.924-8.48 8.574-.131 15.025 9.494 9.143 19.16-5.243 8.616-19.224 24.339-19.422 24.339-.201 0-14.178-15.722-19.421-24.339-5.883-9.666.568-19.291 9.142-19.16M143.221 126.251c6.548.101 9.091 5.795 9.927 8.48.084.272.622.272.707 0 .835-2.685 3.376-8.379 9.924-8.48 8.574-.131 15.025 9.494 9.143 19.16-5.243 8.616-19.224 24.339-19.422 24.339-.201 0-14.178-15.722-19.421-24.339-5.883-9.666.568-19.291 9.142-19.16M143.221 265.749c6.548-.101 9.091-5.795 9.927-8.48.084-.272.622-.272.707 0 .835 2.685 3.376 8.379 9.924 8.48 8.574.131 15.025-9.494 9.143-19.16-5.243-8.616-19.224-24.339-19.422-24.339-.201 0-14.178 15.722-19.421 24.339-5.883 9.666.568 19.291 9.142 19.16"/></g></g><defs><clipPath id="b"><rect width="203" height="288" x="8" y="4" fill="#fff" rx="10"/></clipPath><filter id="a" width="219" height="304" x="0" y="0" color-interpolation-filters="sRGB" filterUnits="userSpaceOnUse"><feFlood flood-opacity="0" result="BackgroundImageFix"/><feColorMatrix in="SourceAlpha" result="hardAlpha" values="0 0 0 0 0 0 0 0 0 0 0 0 0 0 0 0 0 0 127 0"/><feOffset dy="4"/><feGaussianBlur stdDeviation="4"/><feComposite in2="hardAlpha" operator="out"/><feColorMatrix values="0 0 0 0 0.614771 0 0 0 0 0.70094 0 0 0 0 0.806257 0 0 0 1 0"/><feBlend in2="BackgroundImageFix" result="effect1_dropShadow_18_652"/><feBlend in="SourceGraphic" in2="effect1_dropShadow_18_652" result="shape"/></filter></defs></svg>
